!!!OTL: KOESTER MINNE MANN ES DOOT
!!!ARE: Europa, Mitteleuropa, Deutschland, Niederrhein, Wesel, Xanten
!!!SCT: E0911
!!!YEM: Copyright 1995, estate of Helmut Schaffrath.
**kern
*ICvox
*Ivox
*M2/4
*k[b-e-]
*B-:
{8f
=1
8f
8b-
8b-
8b-
=2
8b-
16a
16g
4f}
=3
{8g
8g
8a
8f
=4
8b-
8dd
8b-}
{8f
=5
8f
8b-
8b-
8b-
=6
8b-
16a
16g
4f}
=7
{8g
8g
8a
8f
=8
8b-
8dd
8b-
8r}
=9
{8a
8a
8b-
8b-
=10
8ee-
8ee-
4dd}
=11
{8cc
8cc
8a
8f
=12
8ff
16ff
16ff
4dd}
=13
{8cc
8cc
8a
8f
=14
8b-
8dd
8b-}
==
!!!AGN: Ehestands - Lied
!!!ONB: ESAC (Essen Associative Code) Database: ERK2
!!!AMT: simple duple
!!!AIN: vox
!!!EED: Helmut Schaffrath
!!!EEV: 1.0
*-
